X:1
T:Jesus, My Only Hope
T:Jesus, My Only Hope
T:William James Kirkpatrick
T:Frances Jane (Fanny) Crosby, 1886
T:Public Domain Courtesy of the Cyber Hymnal™
C:William James Kirkpatrick
Z:Public Domain
Z:Courtesy of the Cyber Hymnal™
%%score 1 ( 2 3 )
L:1/8
Q:1/4=115
M:4/4
K:Eb
V:1 treble 
V:2 bass 
V:3 bass 
V:1
 [GB]4 [FA]2 [Ac]2 | [GB]3 [FA] [EG]4 | [EG]4 [DF]2 [FA]2 | [EG]6 | [GB]4 [FA]2 [Ac]2 | %5
w: 1.~Je- sus, my|on- ly hope,|friend ev- er|dear,|Bend to my|
w: 2.~Je- sus, my|on- ly hope,|grant me Thy|grace,|Teach me in|
w: 3.~Je- sus, my|on- ly hope,|Je- sus, my|king,|Help me with|
w: 4.~Je- sus, my|on- ly hope,|be Thou my|guest;|Un- der Thy|
 [GB]3 [FA] [EG]4 | [DF]4 [EG]2 [EF]2 | [DB]6 | [Ac]4 [GB]2 [FA]2 | [EG]3 [FA] [GB]4 | %10
w: ear- nest prayer|Thy gra- cious|ear;|Come from Thy|throne a- bove,|
w: joy and pain|Thy hand to|trace;|Keep Thou my|heart in peace,|
w: heart and voice|Thy praise to|sing;|Now let Thy|beams di- vine|
w: might- y wings,|O let me|rest,|Rest till the|an- gel band|
 [Bd]4 [Ac]2 [FA]2 | [Ac]3 [GB] [GB]4 | [Ge]4 (fe) (dc) | [GB]3 (c/d/) [Ge]4 | [EG]4 [DF]2 [FA]2 | %15
w: come and my|dross re- move,|Fill me * with *|per- fect * love,|Sav- ior, to|
w: bid ev- ery|mur- mur cease,|Come and * my *|faith in- * crease,|Sav- ior, in|
w: bright o’er my|path- way shine,|Draw me, * O *|Sav- ior * mine,|clos- er to|
w: home to the|prom- ised land|Bears me * at *|Thy com- * mand,|Sav- ior, to|
 [EG]8 |] %16
w: Thee.|
w: Thee.|
w: Thee.|
w: Thee.|
V:2
 [E,B,]4 [E,B,]2 [E,E]2 | [E,E]3 [E,B,] [E,B,]4 | [B,,B,]4 [B,,B,]2 [B,,B,]2 | [E,B,]6 | %4
 [E,B,]4 [E,B,]2 [E,E]2 | [E,E]3 [E,B,] [E,B,]4 | [F,B,]4 [F,=A,]2 [F,A,]2 | [B,,F,B,]6 | %8
 B,,4 B,2 B,2 | E,4 B,2 B,2 | B,,4 B,2 B,2 | E,4 B,2 B,2 | [E,B,]4 [E,C]2 [E,D]2 | %13
 [E,E]3 [E,C] [E,B,]4 | B,4 [B,,B,]2 [B,,B,]2 | [E,B,]8 |] %16
V:3
 x8 | x8 | x8 | x6 | x8 | x8 | x8 | x6 | B,,4 B,2 B,2 | E,4 (B,2 B,2) | B,,4 B,2 B,2 | %11
 E,4 B,2 B,2 | x8 | x8 | x8 | x8 |] %16

